X:46
C:Page 23
T:Irish Washerwoman. MBe.46, The
S:Matthew Betham MS, Towcett Cumbria, 1815
O:England;Cumbria;Towcett
Z:VMP – Hugh Taylor, 2012
M:6/8
L:1/8
Q:3/8=120
R:.Jig
K:G
e/d/|BGG DGG|BGB dcB|cAA EAA|cAc efg|
BGG DGG|BGB dcB|cBc Adc|BGG G3:|
|:g/a/|agg dgg|bgb c’ag|afd dfd|dfa agf
egg dgg|cgg Bgg|cBc Adc|BGG G3:|

